app/img/icons/burger.svg

<svg width="18" height="12" viewBox="0 0 18 12" fill="none" xmlns="http://www.w3.org/2000/svg">
<path d="M17.05 5H0.95C0.42533 5 0 5.42533 0 5.95V6.05C0 6.57467 0.42533 7 0.95 7H17.05C17.5747 7 18 6.57467 18 6.05V5.95C18 5.42533 17.5747 5 17.05 5Z" fill="#FA4616"/>
<path d="M17.05 10H0.95C0.42533 10 0 10.4253 0 10.95V11.05C0 11.5747 0.42533 12 0.95 12H17.05C17.5747 12 18 11.5747 18 11.05V10.95C18 10.4253 17.5747 10 17.05 10Z" fill="#FA4616"/>
<path d="M17.05 0H0.95C0.42533 0 0 0.425329 0 0.95V1.05C0 1.57467 0.42533 2 0.95 2H17.05C17.5747 2 18 1.57467 18 1.05V0.95C18 0.425329 17.5747 0 17.05 0Z" fill="#FA4616"/>
</svg>

<svg width="18" height="12" fill="none" xmlns="http://www.w3.org/2000/svg"><path d="M17.05 5H.95a.95.95 0 00-.95.95v.1c0 .525.425.95.95.95h16.1a.95.95 0 00.95-.95v-.1a.95.95 0 00-.95-.95zm0 5H.95a.95.95 0 00-.95.95v.1c0 .525.425.95.95.95h16.1a.95.95 0 00.95-.95v-.1a.95.95 0 00-.95-.95zm0-10H.95A.95.95 0 000 .95v.1c0 .525.425.95.95.95h16.1a.95.95 0 00.95-.95v-.1a.95.95 0 00-.95-.95z" fill="#FA4616"/></svg>
